X: 17790
T: Honourable Miss Drummond Of Perth's Delight, The
R: jig
M: 6/8
K: Amajor
E|AAA A2 c/d/|e>fe ecA|FBB B2 B/c/|d>ed/c/ BGE|
AAA A2 c/d/|e>fe ecA|Fdc BAG|AAA A2:|
c/d/|efg a2 g|fed cBA|dfe/d/ ced/c/|
dFc/B/ A/G/FE|efg a>ba/g/|fed cBA|
Fdc BGE|AAA A2:|

